dist/assets/img/sketch.svg

<svg baseProfile="tiny" xmlns="http://www.w3.org/2000/svg" width="24" height="24" viewBox="0 0 24 24"><path d="M17.772 2.433a.473.473 0 0 0-.359-.167H6.587a.468.468 0 0 0-.358.167l-4.99 5.918a.468.468 0 0 0 .001.604h-.003l10.762 12.779L22.762 8.955l-.001-.001a.468.468 0 0 0 .001-.604l-4.99-5.917zm-.577.77l4.199 4.98h-4.802l-3.666-4.98h4.269zm-1.766 4.981H8.571l3.428-4.657 3.43 4.657zM6.805 3.203h4.269l-3.666 4.98H2.604l4.201-4.98zM2.604 9.122h4.707l3.392 9.616-8.099-9.616zm5.704 0h7.386L12 19.596 8.308 9.122zm4.989 9.616l3.391-9.616h4.708l-8.099 9.616z"/></svg>

<?xml version="1.0" encoding="utf-8"?>
<!-- Generator: Adobe Illustrator 16.0.0, SVG Export Plug-In . SVG Version: 6.00 Build 0)  -->
<!DOCTYPE svg PUBLIC "-//W3C//DTD SVG 1.1 Tiny//EN" "http://www.w3.org/Graphics/SVG/1.1/DTD/svg11-tiny.dtd">
<svg version="1.1" baseProfile="tiny" id="Layer_1" xmlns="http://www.w3.org/2000/svg" xmlns:xlink="http://www.w3.org/1999/xlink"
	 x="0px" y="0px" width="24px" height="24px" viewBox="0 0 24 24" xml:space="preserve">
<path d="M17.772,2.433c-0.089-0.105-0.221-0.167-0.359-0.167H6.587c-0.139,0-0.27,0.062-0.358,0.167l-4.99,5.918
	c-0.117,0.14-0.144,0.335-0.066,0.5c0.018,0.038,0.041,0.072,0.067,0.104L1.237,8.955l10.762,12.779L22.762,8.955l-0.001-0.001
	c0.026-0.031,0.049-0.065,0.067-0.104c0.077-0.165,0.052-0.36-0.066-0.5L17.772,2.433z M17.195,3.203l4.199,4.98h-4.802l-3.666-4.98
	H17.195z M15.429,8.184H8.571l3.428-4.657L15.429,8.184z M6.805,3.203h4.269l-3.666,4.98H2.604L6.805,3.203z M2.604,9.122h4.707
	l3.392,9.616L2.604,9.122z M8.308,9.122h7.386l-3.694,10.474L8.308,9.122z M13.297,18.738l3.391-9.616h4.708L13.297,18.738z"/>
</svg>
